Obsidian-SemiLight/actions/24s/irc-unvoice.svg

<svg viewBox="0 0 24 24" xmlns="http://www.w3.org/2000/svg"><path d="m16 5-12 3.4179688v1.0429687 4.5390625.582031l1 .285157v2.132812.300781l6 1.699219v-1-1.423828l5 1.423828v-1.042969-10.9140622zm-1 1.328125v10.34375l-10-2.847656v-4.6484378zm-12 2.375-1 .2851562v.0117188 1 3 1 .011719l1 .285156v-.296875-.746094-3.5078122-.7460938zm14 2.296875v2h5v-2zm-11 4.152344 4 1.138672v1.425781l-4-1.132813z" fill="#da4453"/></svg>

<svg xmlns="http://www.w3.org/2000/svg" viewBox="0 0 24 24">
  <defs id="defs3051">
    <style type="text/css" id="current-color-scheme">
      .ColorScheme-NegativeText {
        color:#da4453;
      }
      </style>
  </defs>
  <path
     style="fill:currentColor;fill-opacity:1;stroke:none" 
     d="M 16 5 L 4 8.4179688 L 4 9.4609375 L 4 14 L 4 14.582031 L 5 14.867188 L 5 17 L 5 17.300781 L 11 19 L 11 18 L 11 16.576172 L 16 18 L 16 16.957031 L 16 6.0429688 L 16 5 z M 15 6.328125 L 15 16.671875 L 5 13.824219 L 5 9.1757812 L 15 6.328125 z M 3 8.703125 L 2 8.9882812 L 2 9 L 2 10 L 2 13 L 2 14 L 2 14.011719 L 3 14.296875 L 3 14 L 3 13.253906 L 3 9.7460938 L 3 9 L 3 8.703125 z M 17 11 L 17 13 L 22 13 L 22 11 L 17 11 z M 6 15.152344 L 10 16.291016 L 10 17.716797 L 6 16.583984 L 6 15.152344 z "
     class="ColorScheme-NegativeText"
     />
</svg>
